!!!OTL: Abraham et semini
**kern
*staff1
=--
*clefG2
*k[b-]
*M6/1
1cc
2cc
2a
2cc
2.dd
4dd
1cc
1b-
2cc
=-
2cc
2.cc
4cc
1g
2.a
4b-
2cc
2cc
2dd
2ee
2ff
=-
2cc
1.dd
2dd
0cc
=-
!!linebreak:original
1a
1b-
1cc
2cc
1b-
2cc
2.dd
4dd
=-
2cc
2cc
2cc
2a
2g
4a
4cc
2cc
2a
2g
4a
4cc
2cc
2a
=-
2g
4a
4cc
1cc
1cc
=-
!!linebreak:original
*M3/2
1ff
2ee
2.dd
4dd
2cc
=-
1dd
2cc
1b-
2cc
=-
1dd
2cc
1b-
2cc
=-
1dd
2cc
1b-
2cc
=-
!!linebreak:original
*met(c|)
*M2/2
1.cc
2cc
2.dd
4dd
2cc
1ff
2ee-
2dd
2dd
=-
1cc
1cc
2.dd
4cc
4b-
4cc
2dd
0cc
=-=
*-
!!title: @{OTL}, @{GTL}, ed. @{ENC}
!!!pag:
!!!GTL: Hymnbook C
!!!EFL: 
!!!YEM: Creative Commons CC/BY/NC/SA 4.0
!!!ENC: Marcin Konik
!!!END: 2015-0m-dd
!!!EED: Marcin Konik
!!!EEV: 
!!!ONB: Encoded in vim by Marcin Konik
!!!CharacterEncoding: utf-8
!!!RDF**kern: l=long note in original notation
!!!RDF**kern: i=editorial accidental
!!muse2ps: z14jc180F
!!!COM: Anonim
!!!CDT: [?]
!!!TXO: Polish
!!!ODT: 
!!!GTL: Hymnbook C
!!!ARL: Opactwo św. Wojciecha, Staniątki 
!!!voices:	1
